X:1
T:Title
%%score { 1 | 2 }
L:1/8
M:9/8
K:D
V:1 treble nm="Grand Piano"
V:2 bass 
V:1
 z3 z3[Q:1/4=100] [FA][=F^G][^FA] | [Fd]3 [FA]3 FED | [CA]3 [CE]3 [EG][^DF][EG] | %3
 [Gc]3 [EG]3 [GB][Ac][CGB] |[M:3/4] [FA]6 |[M:3/8] [FA][=F^G][^FA] | %6
[M:9/8] [Fd]3 [DFA]3 [A,DF][A,EG][DFA] | [DGc]3 [DGB]3 [DGB][DAc][DBd] | %8
 [DFA]2 [DGB] [DF]3[K:bass] [G,CE]2 [G,CE] |[M:3/4] [F,D]6 |[M:3/8][K:treble] [FA][FB][Fc] | %11
[M:9/8] [Fd]3 [Fe]3 [Fd][Fc][FB] | [Gd]3 [Gc]3 ceB | d3 c3 GcB |[M:3/4] [FA]6 | %15
[M:3/8] [DF][EG][FA] |[M:9/8] [Fd]3 [DFA]3 [A,DF][A,EG][DFA] | [DGc]3 [DGB]3 [D=FB][CFc][B,Fd] | %18
 [DFA]2 [DGB] [A,DF]3[K:bass] [G,CE]2 [G,CE] |[M:3/4] [F,D]6 |] %20
V:2
 z3 z3 [D,D][D,D][D,D] | [D,A,]3 [D,D]3 [D,A,D][D,G,D][D,F,] | %2
 [A,,E,]3 [A,,A,]3 [A,,A,][A,,A,][A,,A,] | [A,,A,]3 [A,,A,]3 [A,,A,][A,,A,]A,, |[M:3/4] [D,D]6 | %5
[M:3/8] [D,D][D,D][D,D] |[M:9/8] [D,A,]3 D,3 D,D,D, | G,3 G,3 G,G,G, | A,2 A, A,3 A,,2 A,, | %9
[M:3/4] D,6 |[M:3/8] [D,D][D,D][D,D] |[M:9/8] [D,A,]3 [D,A,]3 [D,A,][D,A,][D,A,] | %12
 [E,A,]3 [E,A,]3[K:treble] [A,G][A,CG][A,CG] | [A,EG]3 [A,EG]3 [A,CE][A,CG][A,CG] | %14
[M:3/4][K:bass] [D,D]6 |[M:3/8] [D,A,][D,A,][D,D] |[M:9/8] [D,A,]3 D,3 D,D,D, | %17
 G,,3 G,,3 ^G,,G,,G,, | A,,2 A,, A,,3 A,,2 A,, |[M:3/4] D,6 |] %20

